X: 1
T: the Funnel in the Tunesmith's Truck
C: by David A Kaynor, 1994
R: reel
%D:1994
B: David A. Kaynor "Living Music and Dance" 2021
Z: 2022 John Chambers <jc:trillian.mit.edu>
S: Dave_Kaynors_Melodies_and_Harmonies.PDF
M: 4/4
L: 1/8
K: D
# = = = = = = = = = =
FE |:\
"D"DFAd fdAF | DFAd fdf2 | dcde fedf | "Em"e2B2 B2(3BcB || "A7"Acef gecB |
"A7"Acef gfg2 |[1 Acef gfga | "E"ba^ga "A"fdAF :|[2 Acef gecA | "D"d2dc d^def ||[K:G]
"G"gBfB eBdB | GFGA BGD2 | GFGA BGDB, | "Am"E6 FE ||
"D"DFAB cAFE | DFAB cBc2 | DFAB cBcd | "A"ed^cd "D"edef |]
"G"gBfB eBdB | GFGA BGD2 | GFGA BGAB | "Am"cBcd c2ef ||
"C"gfgf "D"afga | "G"bage "Em"dbag | "Am"fedB "D"cAFD | "G"G6 :|
# = = = = = = = = = =
%%begintext align
%%endtext
